src/lib/packages/icons/src/assets/filled/stripe.svg

<svg width="24" height="24" viewBox="0 0 24 24" fill="none" xmlns="http://www.w3.org/2000/svg">
<path d="M18.23 11.74H17.23C17.23 11.31 17.5 11.13 17.74 11.13C17.98 11.13 18.23 11.3 18.23 11.74ZM14.52 11.2C14.3 11.2 14.16 11.28 14.06 11.39V12.83C14.16 12.93 14.29 13.01 14.52 13.01C14.88 13.01 15.12 12.62 15.12 12.1C15.12 11.58 14.88 11.2 14.52 11.2ZM21 8V16C21 18 20 19 18 19H6C4 19 3 18 3 16V8C3 6 4 5 6 5H18C20 5 21 6 21 8ZM7.60004 12.76C7.60004 11.61 6.13 11.82 6.13 11.38C6.13 11.23 6.27003 11.17 6.47003 11.17C6.81003 11.17 7.12999 11.26 7.42999 11.42V10.51C7.10999 10.38 6.79003 10.33 6.47003 10.33C5.69003 10.33 5.15002 10.74 5.15002 11.42C5.15002 12.49 6.62 12.32 6.62 12.78C6.62 12.96 6.48001 13.01 6.26001 13.01C5.94001 13.01 5.54002 12.88 5.21002 12.7V13.62C5.54002 13.76 5.90001 13.84 6.26001 13.84C7.06001 13.84 7.60004 13.44 7.60004 12.75V12.76ZM9.48999 10.4H8.75V9.57001L7.81 9.77002V12.86C7.81 12.86 7.81 12.89 7.81 12.91C7.83 13.45 8.27 13.87 8.81 13.85C9.13 13.85 9.35999 13.79 9.48999 13.72V12.93C9.36999 12.98 8.76001 13.16 8.76001 12.59V11.22H9.48999V10.39V10.4ZM11.54 10.4C11.41 10.36 10.93 10.27 10.69 10.69L10.66 10.4H9.79004V13.79H10.76V11.49C11 11.19 11.42 11.25 11.54 11.29V10.4ZM12.74 10.4H11.77V13.79H12.74V10.4ZM12.74 9.09L11.77 9.29001V10.08L12.74 9.87V9.08002V9.09ZM16.08 12.07C16.08 10.94 15.44 10.33 14.76 10.33C14.48 10.33 14.21 10.44 14 10.63L13.98 10.39H13.1V14.89L14.07 14.69V13.6C14.21 13.7 14.42 13.84 14.75 13.84C15.44 13.84 16.07 13.28 16.07 12.06L16.08 12.07ZM19.15 12.09C19.15 11.1 18.67 10.33 17.75 10.33C16.83 10.33 16.27 11.11 16.27 12.09C16.27 13.26 16.93 13.84 17.87 13.84C18.24 13.86 18.62 13.77 18.94 13.58V12.8C18.68 12.94 18.37 13.02 17.99 13.02C17.61 13.02 17.28 12.87 17.24 12.42H19.13C19.13 12.37 19.14 12.17 19.14 12.07L19.15 12.09Z" fill="currentColor"/>
</svg>

<svg xmlns="http://www.w3.org/2000/svg" width="24" height="24" fill="none"><path fill="currentColor" d="M18.23 11.74h-1c0-.43.27-.61.51-.61s.49.17.49.61Zm-3.71-.54c-.22 0-.36.08-.46.19v1.44c.1.1.23.18.46.18.36 0 .6-.39.6-.91s-.24-.9-.6-.9ZM21 8v8c0 2-1 3-3 3H6c-2 0-3-1-3-3V8c0-2 1-3 3-3h12c2 0 3 1 3 3ZM7.6 12.76c0-1.15-1.47-.94-1.47-1.38 0-.15.14-.21.34-.21.34 0 .66.09.96.25v-.91c-.32-.13-.64-.18-.96-.18-.78 0-1.32.41-1.32 1.09 0 1.07 1.47.9 1.47 1.36 0 .18-.14.23-.36.23-.32 0-.72-.13-1.05-.31v.92c.33.14.69.22 1.05.22.8 0 1.34-.4 1.34-1.09v.01Zm1.89-2.36h-.74v-.83l-.94.2v3.14c.02.54.46.96 1 .94.32 0 .55-.06.68-.13v-.79c-.12.05-.73.23-.73-.34v-1.37h.73v-.83.01Zm2.05 0c-.13-.04-.61-.13-.85.29l-.03-.29h-.87v3.39h.97v-2.3c.24-.3.66-.24.78-.2v-.89Zm1.2 0h-.97v3.39h.97V10.4Zm0-1.31-.97.2v.79l.97-.21v-.79.01Zm3.34 2.98c0-1.13-.64-1.74-1.32-1.74-.28 0-.55.11-.76.3l-.02-.24h-.88v4.5l.97-.2V13.6c.14.1.35.24.68.24.69 0 1.32-.56 1.32-1.78l.01.01Zm3.07.02c0-.99-.48-1.76-1.4-1.76-.92 0-1.48.78-1.48 1.76 0 1.17.66 1.75 1.6 1.75.37.02.75-.07 1.07-.26v-.78c-.26.14-.57.22-.95.22s-.71-.15-.75-.6h1.89c0-.05.01-.25.01-.35l.01.02Z"/></svg>
